X: 1
T: An Grianan
M: 2/4
L: 1/8
R: polka
K: Gmaj
G2 GA|BA Bd|B2 B/c/B/A/|GE ED|
G2 GA|BA Bd|e/f/g fa|g2 g2:|
|:ea af|gf ed|B2 B/c/B/A/|GE ED|
G2 GA|BA Bd|e/f/g fa|g2 g2:|
